Origami/32x32/apps/unknown-horizons.svg

<svg width="32" height="32" version="1.1" viewBox="0 0 32 32" xmlns="http://www.w3.org/2000/svg">
 <path d="m21.2 24h-19.2s4.2 6 16.8 6c8.4 0 11.2-4.2 11.2-6.3 0-1.816718 0-2.7-1.4-2.7h-6c-1.4 0-1.4 1.321299-1.4 3z" style="opacity:.2"/>
 <path d="m19 9v-4l5 2z" style="opacity:.2"/>
 <path d="m21.2 23h-19.2s4.2 6 16.8 6c8.4 0 11.2-4.2 11.2-6.3 0-1.816718 0-2.7-1.4-2.7h-6c-1.4 0-1.4 1.321299-1.4 3z" style="fill:#784421"/>
 <path d="m19 9v15s-6-3.4275-6-7.500001c0-4.072499 6-7.499999 6-7.499999z" style="opacity:.2"/>
 <path d="m19 8v15s-6-3.4275-6-7.500001c0-4.072499 6-7.499999 6-7.499999z" style="fill:#cccccc"/>
 <path d="m19 8v-4l5 2z" style="fill:#c83737"/>
 <path d="m10 14v10s-4-2.285-4-5 4-5 4-5z" style="opacity:.2"/>
 <path d="m10 13v10s-4-2.285-4-5 4-5 4-5z" style="fill:#cccccc"/>
 <path d="m22 21.666667s0-0.666667 0.5-0.666667 0.5 0.666667 0.5 0.666667v1.333333h-1z" style="opacity:.4"/>
 <path d="m25 21.666667s0-0.666667 0.5-0.666667 0.5 0.666667 0.5 0.666667v1.333333h-1z" style="opacity:.4"/>
 <path d="m28 21.666667s0-0.666667 0.5-0.666667 0.5 0.666667 0.5 0.666667v1.333333h-1z" style="opacity:.4"/>
 <path d="m22.599609 20c-1.4 0-1.40039 1.321299-1.40039 3h-19.199219s0.2957844 0.406813 0.9277344 1h18.271485c0-1.678701 3.9e-4 -3 1.40039-3h6c1.159946 0 1.350662 0.643553 1.384766 1.884766 0.004374-0.061388 0.015625-0.12726 0.015625-0.185547 0-1.816718-3.91e-4 -2.699219-1.400391-2.699219h-6z" style="fill:#ffffff;opacity:.1"/>
 <path d="m19 8s-6 3.427501-6 7.5c0 0.168344 0.023312 0.334057 0.042969 0.5 0.455879-3.848477 5.957031-7 5.957031-7v-1z" style="fill:#ffffff;opacity:.1"/>
 <path d="m19 4v1l3.75 1.5 1.25-0.5-5-2z" style="fill:#ffffff;opacity:.1"/>
 <path d="M 10 13 C 10 13 6 15.285 6 18 C 6 18.167077 6.0164902 18.332705 6.0449219 18.496094 C 6.484375 16.007965 10 14 10 14 L 10 13 z" style="fill:#ffffff;opacity:.1"/>
</svg>

<svg xmlns="http://www.w3.org/2000/svg" width="32" height="32" version="1.1" viewBox="0 0 32 32">
 <path style="opacity:0.2" d="M 21.2,24 H 2 c 0,0 4.2,6 16.8,6 C 27.2,30 30,25.8 30,23.7 30,21.883282 30,21 28.6,21 h -6 c -1.4,0 -1.4,1.321299 -1.4,3 z"/>
 <path style="opacity:0.2" d="M 19,9 V 5 l 5,2 z"/>
 <path style="fill:#784421" d="M 21.2,23 H 2 c 0,0 4.2,6 16.8,6 C 27.2,29 30,24.8 30,22.7 30,20.883282 30,20 28.6,20 h -6 c -1.4,0 -1.4,1.321299 -1.4,3 z"/>
 <path style="opacity:0.2" d="M 19,9 V 24 C 19,24 13,20.5725 13,16.499999 13,12.4275 19,9 19,9 Z"/>
 <path style="fill:#cccccc" d="M 19,8 V 23 C 19,23 13,19.5725 13,15.499999 13,11.4275 19,8 19,8 Z"/>
 <path style="fill:#c83737" d="M 19,8 V 4 l 5,2 z"/>
 <path style="opacity:0.2" d="m 10,14 v 10 c 0,0 -4,-2.285 -4,-5 0,-2.715 4,-5 4,-5 z"/>
 <path style="fill:#cccccc" d="m 10,13 v 10 c 0,0 -4,-2.285 -4,-5 0,-2.715 4,-5 4,-5 z"/>
 <path style="opacity:0.4" d="M 22,21.666667 C 22,21.666667 22,21 22.5,21 23,21 23,21.666667 23,21.666667 V 23 h -1 z"/>
 <path style="opacity:0.4" d="M 25,21.666667 C 25,21.666667 25,21 25.5,21 26,21 26,21.666667 26,21.666667 V 23 h -1 z"/>
 <path style="opacity:0.4" d="M 28,21.666667 C 28,21.666667 28,21 28.5,21 29,21 29,21.666667 29,21.666667 V 23 h -1 z"/>
 <path style="fill:#ffffff;opacity:0.1" d="M 22.599609 20 C 21.199609 20 21.199219 21.321299 21.199219 23 L 2 23 C 2 23 2.2957844 23.406813 2.9277344 24 L 21.199219 24 C 21.199219 22.321299 21.199609 21 22.599609 21 L 28.599609 21 C 29.759555 21 29.950271 21.643553 29.984375 22.884766 C 29.988749 22.823378 30 22.757506 30 22.699219 C 30 20.882501 29.999609 20 28.599609 20 L 22.599609 20 z"/>
 <path style="fill:#ffffff;opacity:0.1" d="M 19 8 C 19 8 13 11.427501 13 15.5 C 13 15.668344 13.023312 15.834057 13.042969 16 C 13.498848 12.151523 19 9 19 9 L 19 8 z"/>
 <path style="fill:#ffffff;opacity:0.1" d="M 19 4 L 19 5 L 22.75 6.5 L 24 6 L 19 4 z"/>
 <path style="fill:#ffffff;opacity:0.1" d="M 10 13 C 10 13 6 15.285 6 18 C 6 18.167077 6.0164902 18.332705 6.0449219 18.496094 C 6.484375 16.007965 10 14 10 14 L 10 13 z"/>
</svg>
